Catalina-light/actions/22/media-playlist-repeat-song.svg

<svg viewBox="0 0 22 22" xmlns="http://www.w3.org/2000/svg">
<defs>
<style id="current-color-scheme" type="text/css">.ColorScheme-Text {
        color:#363636
      }</style>
</defs>
<path class="ColorScheme-Text" d="m12 14v-6h-1l-2 1v1h1.5v4m5.5 2h-10v-3l-4 4 4 4v-3h12v-6h-2m-10-6h10v3l4-4-4-4v3h-12v6h2v-4z" fill="#363636"/>
</svg>

<svg xmlns="http://www.w3.org/2000/svg" viewBox="0 0 22 22">
  <defs id="defs3051">
    <style type="text/css" id="current-color-scheme">
      .ColorScheme-Text {
        color:#4d4d4d
      }
      </style>
  </defs>
 <path 
     style="fill:currentColor;fill-opacity:1;stroke:none"      
	 class="ColorScheme-Text"
     d="m 12,14 0,-6 -1,0 -2,1 0,1 1.5,0 0,4 m 5.5,2 -10,0 0,-3 -4,4 4,4 0,-3 12,0 0,-6 -2,0 M 6,6 16,6 16,9 20,5 16,1 16,4 4,4 4,10 6,10 6,6 Z"
     />
</svg>
